X: 051874
T: Declan Payne's
T: Enniscorthy Jig #1
S: "The Killavil Sessions" (Ceoltoiri Coleman)
L: 1/8
M: 6/8
R: jig
K: G
D | GFG DGB | d^ce dBG | ABA EAB | cAF DFA |
GFG DGB | d^ce dBG | cBc dcA | AGF G2 :|
e | gfg eaf | gdB GBd | A^ce a2g | faf def |
gfg eaf | gdB GBd | cBc dcA | AGF G2 :|
